tracks/gnu-apl.svg

<svg width="96" height="96" fill="none" xmlns="http://www.w3.org/2000/svg">
  <path d="M44 2.3093a8 8 0 018 0l33.5692 19.3812a8 8 0 014 6.9282v38.7624a7.9998 7.9998 0 01-4 6.9282L52 93.6905a7.9998 7.9998 0 01-8 0L10.4308 74.3093a7.9998 7.9998 0 01-4-6.9282V28.6187a8 8 0 014-6.9282L44 2.3093z" fill="#fff"/>
  <path fill-rule="evenodd" clip-rule="evenodd" d="M84.1907 22.9024L51.5701 4.069a7.233 7.233 0 00-7.2331 0L11.7165 22.9024a7.2332 7.2332 0 00-3.6166 6.2641v37.667a7.233 7.233 0 003.6166 6.264L44.337 91.931a7.233 7.233 0 007.2331 0l32.6206-18.8335a7.233 7.233 0 003.6165-6.264v-37.667a7.2333 7.2333 0 00-3.6165-6.2641zM53.1201 1.3844a10.333 10.333 0 00-10.333 0L10.1665 20.2178A10.3332 10.3332 0 005 29.1665v37.667a10.333 10.333 0 005.1665 8.9486l32.6206 18.8335a10.333 10.333 0 0010.333 0l32.6205-18.8335a10.333 10.333 0 005.1666-8.9486v-37.667a10.3332 10.3332 0 00-5.1666-8.9487L53.1201 1.3844z" fill="#000"/>
  <rect x="25.5" y="25.5" width="45" height="45" rx="6.5" fill="#000" stroke="#000" stroke-width="3"/>
  <path d="M39.9511 38.5085c-.1779-.3306-.4354-.5809-.7724-.7509-.3276-.1794-.7161-.2692-1.1655-.2692-.777 0-1.3996.2598-1.8677.7792-.4681.5101-.7021 1.1948-.7021 2.0543 0 .9162.2434 1.634.7302 2.1534.4962.5101 1.1749.7651 2.0362.7651.5898 0 1.0859-.1512 1.4885-.4534.4119-.3022.7115-.7367.8987-1.3034h-3.0472v-1.7851h5.2238v2.2526c-.1778.6045-.4821 1.1665-.9127 1.6859-.4213.5195-.9596.9398-1.6149 1.2609-.6554.3212-1.3949.4817-2.2188.4817-.9736 0-1.8442-.2125-2.6119-.6375-.7583-.4345-1.3527-1.0342-1.7834-1.7992-.4213-.7651-.6319-1.6387-.6319-2.621s.2106-1.8559.6319-2.621c.4307-.7744 1.0251-1.3742 1.7834-1.7992.7583-.4345 1.6243-.6517 2.5979-.6517 1.1796 0 2.1719.2881 2.977.8642.8145.5761 1.3528 1.3742 1.6149 2.3943h-2.654zM52.9224 45.3088h-2.4012l-4.0162-6.1345v6.1345h-2.4013v-9.9455h2.4013l4.0162 6.1628v-6.1628h2.4012v9.9455zM57.0222 35.3633v5.9503c0 .595.1451 1.0531.4353 1.3742.2902.3212.7162.4817 1.2779.4817.5617 0 .9924-.1605 1.2919-.4817.2996-.3211.4494-.7792.4494-1.3742v-5.9503h2.4013v5.9361c0 .8879-.1873 1.6387-.5617 2.2526-.3745.614-.88 1.0768-1.5166 1.3884-.6273.3117-1.3294.4676-2.1064.4676-.777 0-1.4745-.1512-2.0924-.4534-.6085-.3117-1.0906-.7745-1.4463-1.3884-.3558-.6233-.5337-1.3789-.5337-2.2668v-5.9361h2.4013zM41.1649 59.4295h-4.3361L36.1336 61.5h-2.9624l4.2037-11.7214h3.2769L44.8556 61.5H41.86l-.6951-2.0705zm-.7282-2.204l-1.4399-4.2912-1.4233 4.2912h2.8632zM54.9893 53.5521c0 .679-.1544 1.3024-.4634 1.8701-.3089.5566-.7834 1.0074-1.4233 1.3525-.6399.3451-1.4343.5176-2.3832.5176h-1.7543V61.5H46.135V49.7786h4.5844c.9268 0 1.7102.1614 2.3501.4842.6399.3228 1.1199.7681 1.4399 1.3358.3199.5677.4799 1.2189.4799 1.9535zm-4.4851 1.4694c.5407 0 .9434-.128 1.2082-.3841.2648-.256.3972-.6177.3972-1.0853 0-.4675-.1324-.8293-.3972-1.0853-.2648-.256-.6675-.384-1.2082-.384h-1.5391v2.9387h1.5391zM59.2928 59.296H63V61.5h-6.5373V49.7786h2.8301v9.5174z" fill="#fff"/>
</svg>

<svg width="96" height="96" viewBox="0 0 96 96" fill="none" xmlns="http://www.w3.org/2000/svg">
<path d="M44 2.30935C46.4752 0.880283 49.5248 0.880284 52 2.30935L85.5692 21.6905C88.0444 23.1196 89.5692 25.7606 89.5692 28.6187V67.3811C89.5692 70.2393 88.0444 72.8803 85.5692 74.3093L52 93.6905C49.5248 95.1196 46.4752 95.1196 44 93.6905L10.4308 74.3093C7.95557 72.8803 6.43078 70.2393 6.43078 67.3811V28.6187C6.43078 25.7606 7.95557 23.1196 10.4308 21.6905L44 2.30935Z" fill="white"/>
<path fill-rule="evenodd" clip-rule="evenodd" d="M84.1907 22.9024L51.5701 4.06896C49.3322 2.77689 46.575 2.77689 44.337 4.06896L11.7165 22.9024C9.47853 24.1945 8.09991 26.5824 8.09991 29.1665V66.8335C8.09991 69.4176 9.47853 71.8055 11.7165 73.0975L44.337 91.931C46.575 93.2231 49.3322 93.2231 51.5701 91.931L84.1907 73.0975C86.4286 71.8055 87.8072 69.4176 87.8072 66.8335V29.1665C87.8072 26.5824 86.4286 24.1945 84.1907 22.9024ZM53.1201 1.38436C49.923 -0.461454 45.9841 -0.461455 42.7871 1.38436L10.1665 20.2178C6.96946 22.0637 5 25.4749 5 29.1665V66.8335C5 70.5251 6.96946 73.9363 10.1665 75.7821L42.7871 94.6156C45.9841 96.4614 49.923 96.4614 53.1201 94.6156L85.7406 75.7821C88.9377 73.9363 90.9071 70.5251 90.9071 66.8335V29.1665C90.9071 25.4749 88.9377 22.0637 85.7406 20.2178L53.1201 1.38436Z" fill="black"/>
<rect x="25.5" y="25.5" width="45" height="45" rx="6.5" fill="black" stroke="black" stroke-width="3"/>
<path d="M39.9511 38.5085C39.7732 38.1779 39.5157 37.9276 39.1787 37.7576C38.8511 37.5782 38.4626 37.4884 38.0132 37.4884C37.2362 37.4884 36.6136 37.7482 36.1455 38.2676C35.6774 38.7777 35.4434 39.4624 35.4434 40.3219C35.4434 41.2381 35.6868 41.9559 36.1736 42.4753C36.6698 42.9854 37.3485 43.2404 38.2098 43.2404C38.7996 43.2404 39.2957 43.0892 39.6983 42.787C40.1102 42.4848 40.4098 42.0503 40.597 41.4836H37.5498V39.6985H42.7736V41.9511C42.5958 42.5556 42.2915 43.1176 41.8609 43.637C41.4396 44.1565 40.9013 44.5768 40.246 44.8979C39.5906 45.2191 38.8511 45.3796 38.0272 45.3796C37.0536 45.3796 36.183 45.1671 35.4153 44.7421C34.657 44.3076 34.0626 43.7079 33.6319 42.9429C33.2106 42.1778 33 41.3042 33 40.3219C33 39.3396 33.2106 38.466 33.6319 37.7009C34.0626 36.9265 34.657 36.3267 35.4153 35.9017C36.1736 35.4672 37.0396 35.25 38.0132 35.25C39.1928 35.25 40.1851 35.5381 40.9902 36.1142C41.8047 36.6903 42.343 37.4884 42.6051 38.5085H39.9511Z" fill="white"/>
<path d="M52.9224 45.3088H50.5212L46.505 39.1743V45.3088H44.1037V35.3633H46.505L50.5212 41.5261V35.3633H52.9224V45.3088Z" fill="white"/>
<path d="M57.0222 35.3633V41.3136C57.0222 41.9086 57.1673 42.3667 57.4575 42.6878C57.7477 43.009 58.1737 43.1695 58.7354 43.1695C59.2971 43.1695 59.7278 43.009 60.0273 42.6878C60.3269 42.3667 60.4767 41.9086 60.4767 41.3136V35.3633H62.878V41.2994C62.878 42.1873 62.6907 42.9381 62.3163 43.552C61.9418 44.166 61.4363 44.6288 60.7997 44.9404C60.1724 45.2521 59.4703 45.408 58.6933 45.408C57.9163 45.408 57.2188 45.2568 56.6009 44.9546C55.9924 44.6429 55.5103 44.1801 55.1546 43.5662C54.7988 42.9429 54.6209 42.1873 54.6209 41.2994V35.3633H57.0222Z" fill="white"/>
<path d="M41.1649 59.4295H36.8288L36.1336 61.5H33.1712L37.3749 49.7786H40.6518L44.8556 61.5H41.86L41.1649 59.4295ZM40.4367 57.2255L38.9968 52.9343L37.5735 57.2255H40.4367Z" fill="white"/>
<path d="M54.9893 53.5521C54.9893 54.2311 54.8349 54.8545 54.5259 55.4222C54.217 55.9788 53.7425 56.4296 53.1026 56.7747C52.4627 57.1198 51.6683 57.2923 50.7194 57.2923H48.9651V61.5H46.135V49.7786H50.7194C51.6462 49.7786 52.4296 49.94 53.0695 50.2628C53.7094 50.5856 54.1894 51.0309 54.5094 51.5986C54.8293 52.1663 54.9893 52.8175 54.9893 53.5521ZM50.5042 55.0215C51.0449 55.0215 51.4476 54.8935 51.7124 54.6374C51.9772 54.3814 52.1096 54.0197 52.1096 53.5521C52.1096 53.0846 51.9772 52.7228 51.7124 52.4668C51.4476 52.2108 51.0449 52.0828 50.5042 52.0828H48.9651V55.0215H50.5042Z" fill="white"/>
<path d="M59.2928 59.296H63V61.5H56.4627V49.7786H59.2928V59.296Z" fill="white"/>
</svg>
